Yaru++/categories/scalable/preferences-certificates.svg

<?xml version="1.0" encoding="UTF-8" standalone="no"?>
<svg
   xmlns:dc="http://purl.org/dc/elements/1.1/"
   xmlns:cc="http://creativecommons.org/ns#"
   xmlns:rdf="http://www.w3.org/1999/02/22-rdf-syntax-ns#"
   xmlns:svg="http://www.w3.org/2000/svg"
   xmlns="http://www.w3.org/2000/svg"
   xmlns:xlink="http://www.w3.org/1999/xlink"
   xmlns:sodipodi="http://sodipodi.sourceforge.net/DTD/sodipodi-0.dtd"
   xmlns:inkscape="http://www.inkscape.org/namespaces/inkscape"
   width="256"
   height="256"
   version="1.0"
   viewBox="0 0 256 256"
   style="enable-background:new"
   id="svg106"
   sodipodi:docname="preferences-certificates.svg"
   inkscape:version="0.92.3 (2405546, 2018-03-11)">
  <metadata
     id="metadata110">
    <rdf:RDF>
      <cc:Work
         rdf:about="">
        <dc:format>image/svg+xml</dc:format>
        <dc:type
           rdf:resource="http://purl.org/dc/dcmitype/StillImage" />
        <dc:title>
  Adwaita Icon Template
 </dc:title>
      </cc:Work>
    </rdf:RDF>
  </metadata>
  <sodipodi:namedview
     pagecolor="#ffffff"
     bordercolor="#666666"
     borderopacity="1"
     objecttolerance="10"
     gridtolerance="10"
     guidetolerance="10"
     inkscape:pageopacity="0"
     inkscape:pageshadow="2"
     inkscape:window-width="1920"
     inkscape:window-height="1009"
     id="namedview108"
     showgrid="false"
     inkscape:zoom="2.6801857"
     inkscape:cx="-9.7789401"
     inkscape:cy="126.80283"
     inkscape:window-x="0"
     inkscape:window-y="34"
     inkscape:window-maximized="1"
     inkscape:current-layer="svg106" />
  <title
     id="title4162">
  Adwaita Icon Template
 </title>
  <defs
     id="defs82">
    <linearGradient
       id="linearGradient2250">
      <stop
         id="stop2244"
         offset="0"
         style="stop-opacity:0.30000001" />
      <stop
         id="stop2248"
         offset="1"
         style="stop-opacity:0" />
    </linearGradient>
    <linearGradient
       id="linearGradient1610"
       x1="70.586"
       x2="60"
       y1="53.255"
       y2="23"
       gradientTransform="translate(0,187)"
       gradientUnits="userSpaceOnUse"
       xlink:href="#linearGradient1656" />
    <linearGradient
       id="linearGradient1656">
      <stop
         id="stop1652"
         offset="0"
         style="stop-color:#ffffff" />
      <stop
         id="stop1654"
         offset="1"
         style="stop-color:#deddda" />
    </linearGradient>
    <linearGradient
       id="linearGradient1612"
       x1="60"
       x2="68"
       y1="268"
       y2="268"
       gradientUnits="userSpaceOnUse"
       xlink:href="#linearGradient1270" />
    <linearGradient
       id="linearGradient1270">
      <stop
         id="stop1258"
         offset="0"
         style="stop-color:#949390" />
      <stop
         style="stop-color:#d5d3cf"
         id="stop1260"
         offset=".083" />
      <stop
         id="stop1262"
         offset=".167"
         style="stop-color:#949390" />
      <stop
         style="stop-color:#949390"
         id="stop1264"
         offset=".833" />
      <stop
         id="stop1266"
         offset=".917"
         style="stop-color:#d5d3cf" />
      <stop
         id="stop1268"
         offset="1"
         style="stop-color:#949390" />
    </linearGradient>
    <linearGradient
       id="linearGradient1612-3"
       x1="60"
       x2="68"
       y1="268"
       y2="268"
       gradientTransform="translate(0,-66)"
       gradientUnits="userSpaceOnUse"
       xlink:href="#linearGradient1270" />
    <clipPath
       id="clipPath2213"
       clipPathUnits="userSpaceOnUse">
      <rect
         width="16"
         height="56"
         x="160"
         y="-188"
         rx="8"
         ry="8"
         style="fill:none;stroke:#000000"
         id="rect19" />
    </clipPath>
    <clipPath
       id="clipPath8318"
       clipPathUnits="userSpaceOnUse">
      <rect
         width="16"
         height="56"
         x="160"
         y="-188"
         rx="8"
         ry="8"
         style="fill:none;stroke:#000000"
         id="rect22" />
    </clipPath>
    <clipPath
       id="clipPath8322"
       clipPathUnits="userSpaceOnUse">
      <rect
         width="16"
         height="56"
         x="160"
         y="-188"
         rx="8"
         ry="8"
         style="fill:none;stroke:#000000"
         id="rect25" />
    </clipPath>
    <clipPath
       id="clipPath8326"
       clipPathUnits="userSpaceOnUse">
      <rect
         width="16"
         height="56"
         x="160"
         y="-188"
         rx="8"
         ry="8"
         style="fill:none;stroke:#000000"
         id="rect28" />
    </clipPath>
    <clipPath
       id="clipPath8330"
       clipPathUnits="userSpaceOnUse">
      <rect
         width="16"
         height="56"
         x="160"
         y="-188"
         rx="8"
         ry="8"
         style="fill:none;stroke:#000000"
         id="rect31" />
    </clipPath>
    <clipPath
       id="clipPath8334"
       clipPathUnits="userSpaceOnUse">
      <rect
         width="16"
         height="56"
         x="160"
         y="-188"
         rx="8"
         ry="8"
         style="fill:none;stroke:#000000"
         id="rect34" />
    </clipPath>
    <linearGradient
       id="linearGradient1159"
       x1="32"
       x2="112"
       y1="-244"
       y2="-244"
       gradientTransform="translate(-135.99999)"
       gradientUnits="userSpaceOnUse"
       xlink:href="#linearGradient1723" />
    <linearGradient
       id="linearGradient1723">
      <stop
         style="stop-color:#d5d3cf"
         id="stop1719"
         offset="0" />
      <stop
         id="stop1731"
         offset=".045"
         style="stop-color:#f6f5f4" />
      <stop
         id="stop1729"
         offset=".091"
         style="stop-color:#d5d3cf" />
      <stop
         id="stop1727"
         offset=".909"
         style="stop-color:#d5d3cf" />
      <stop
         style="stop-color:#eeeeec"
         id="stop1733"
         offset=".955" />
      <stop
         style="stop-color:#d5d3cf"
         id="stop1721"
         offset="1" />
    </linearGradient>
    <linearGradient
       id="linearGradient1130"
       x1="344"
       x2="340"
       y1="76"
       y2="72"
       gradientTransform="matrix(0.25,0,0,0.25,180,83)"
       gradientUnits="userSpaceOnUse"
       xlink:href="#linearGradient1351-3" />
    <linearGradient
       id="linearGradient1351-3">
      <stop
         style="stop-color:#d5d3cf"
         id="stop1347"
         offset="0" />
      <stop
         style="stop-color:#ffffff"
         id="stop1349-6"
         offset="1" />
    </linearGradient>
    <clipPath
       id="clipPath1609-7"
       clipPathUnits="userSpaceOnUse">
      <path
         d="m 252,116 28,-28 v -8 h -36 v 36 z"
         style="fill:#e74747"
         id="path49" />
    </clipPath>
    <linearGradient
       id="linearGradient1103"
       x1="128.817"
       x2="158.518"
       y1="-97.698"
       y2="-127.399"
       gradientUnits="userSpaceOnUse"
       xlink:href="#linearGradient1005" />
    <linearGradient
       id="linearGradient1005">
      <stop
         id="stop1001"
         offset="0"
         style="stop-color:#d0bb8e" />
      <stop
         id="stop1003"
         offset="1"
         style="stop-color:#ffffff" />
    </linearGradient>
    <linearGradient
       id="linearGradient8548"
       x1="8"
       x2="112"
       y1="-244.844"
       y2="-244"
       gradientTransform="translate(-123.99998,-4.0000004)"
       gradientUnits="userSpaceOnUse"
       xlink:href="#linearGradient1723" />
    <linearGradient
       id="linearGradient8550"
       x1="344"
       x2="340"
       y1="76"
       y2="72"
       gradientTransform="matrix(0.25,0,0,0.25,180,83)"
       gradientUnits="userSpaceOnUse"
       xlink:href="#linearGradient1351-3" />
    <linearGradient
       id="linearGradient8548-3"
       x1="8"
       x2="112"
       y1="-244.844"
       y2="-244"
       gradientTransform="translate(-123.99998,40.00001)"
       gradientUnits="userSpaceOnUse"
       xlink:href="#linearGradient1723" />
    <linearGradient
       id="linearGradient979"
       x1="261.503"
       x2="261.23"
       y1="105.838"
       y2="105.559"
       gradientUnits="userSpaceOnUse"
       xlink:href="#linearGradient1351-3" />
    <clipPath
       id="clipPath1609-7-1"
       clipPathUnits="userSpaceOnUse">
      <path
         d="m 252,116 28,-28 v -8 h -36 v 36 z"
         style="fill:#e74747"
         id="path60" />
    </clipPath>
    <clipPath
       id="clipPath1609-7-1-7"
       clipPathUnits="userSpaceOnUse">
      <path
         d="m 252,116 28,-28 v -8 h -36 v 36 z"
         style="fill:#e74747"
         id="path63" />
    </clipPath>
    <linearGradient
       id="linearGradient917"
       x1="103.436"
       x2="102.252"
       y1="264.437"
       y2="263.286"
       gradientTransform="translate(-8.7e-7,-41)"
       gradientUnits="userSpaceOnUse"
       xlink:href="#linearGradient1351-3" />
    <clipPath
       id="clipPath983-7"
       clipPathUnits="userSpaceOnUse">
      <path
         d="M 115.03125,44 C 42.3826,44 32,54.356615 32,126.9375 v 58.125 C 32,257.64309 42.3826,268 115.03125,268 H 152 V 44 Z"
         style="fill:#4d4d4d"
         id="path67" />
    </clipPath>
    <filter
       id="filter973"
       width="1.275"
       height="1.147"
       x="-.14"
       y="-.07"
       style="color-interpolation-filters:sRGB">
      <feGaussianBlur
         id="feGaussianBlur975"
         stdDeviation="6.88" />
    </filter>
    <linearGradient
       id="linearGradient4358"
       x1="88"
       x2="488"
       y1="88"
       y2="488"
       gradientTransform="rotate(-90,287.9946,298)"
       gradientUnits="userSpaceOnUse"
       xlink:href="#linearGradient4360" />
    <linearGradient
       id="linearGradient4360">
      <stop
         style="stop-color:#000000;stop-opacity:0.58823532"
         id="stop4362"
         offset="0" />
      <stop
         id="stop4364"
         offset=".88"
         style="stop-color:#000000;stop-opacity:0" />
      <stop
         style="stop-color:#000000"
         id="stop4366"
         offset="1" />
    </linearGradient>
    <filter
       id="filter4380"
       width="1.106"
       height="1.088"
       x="-.05"
       y="-.04"
       style="color-interpolation-filters:sRGB">
      <feGaussianBlur
         id="feGaussianBlur4382"
         stdDeviation="8.48" />
    </filter>
    <filter
       id="filter4346"
       width="1.026"
       height="1.022"
       x="-.01"
       y="-.01"
       style="color-interpolation-filters:sRGB">
      <feGaussianBlur
         id="feGaussianBlur4348"
         stdDeviation="2.12" />
    </filter>
    <linearGradient
       id="linearGradient2242"
       x1="127.828"
       x2="139.067"
       y1="127.702"
       y2="127.672"
       gradientUnits="userSpaceOnUse"
       xlink:href="#linearGradient2250"
       gradientTransform="translate(21.694915,-29.288136)" />
  </defs>
  <path
     d="M 189.84323,74 C 119.24979,74 111.65402,81.250835 112,151.98706 V 298 444.01294 C 111.65402,514.74917 119.24979,522 189.84323,522 H 386.15677 C 456.75021,522 462.16345,514.72616 464,444.01294 V 298 151.98706 C 464,81.249993 456.75021,74 386.15677,74 Z"
     transform="matrix(0,0.5,-0.5,0,276.82523,-15.328148)"
     style="opacity:0.1;filter:url(#filter4346)"
     id="path84" />
  <path
     d="M 189.84323,74 C 119.24979,74 111.65402,81.250835 112,151.98706 V 298 444.01294 C 111.65402,514.74917 119.24979,522 189.84323,522 H 386.15677 C 456.75021,522 464,514.75001 464,444.01294 V 298 151.98706 C 464,81.249993 456.75021,74 386.15677,74 Z"
     transform="matrix(0,0.5,-0.5,0,276.82523,-15.328148)"
     style="opacity:0.3;fill:url(#linearGradient4358);filter:url(#filter4380)"
     id="path86" />
  <path
     d="m 241.83043,77.478254 c 0,-36.098812 -3.69016,-39.983002 -39.68984,-39.80608 H 127.83043 53.520275 c -35.99969,-0.176922 -39.68984,3.707268 -39.68984,39.80608 V 177.86557 c 0,36.09881 3.68973,39.80608 39.68984,39.80608 h 74.310155 74.31016 c 36.00011,0 39.68984,-3.70727 39.68984,-39.80608 z"
     style="opacity:0.1"
     id="path88" />
  <path
     d="m 239.82523,176.74483 c 0,35.29673 -3.62542,39.09461 -38.99353,38.92162 H 127.82523 54.818765 c -35.36812,0.17299 -38.99353,-3.62489 -38.99353,-38.92162 V 78.588074 c 0,-35.296717 3.625,-38.921616 38.99353,-38.921616 h 73.006465 73.00647 c 35.36853,0 38.99353,3.624899 38.99353,38.921616 z"
     style="fill:#f6f5f4"
     id="path90" />
  <path
     d="m 127.82793,127.66916 v 87.99804 h 73.00391 c 35.36811,0.17299 38.99414,-3.62515 38.99414,-38.92188 v -49.07616 z"
     style="opacity:0.1;fill:#ffffff"
     id="path94" />
  <path
     d="m 54.818169,39.667201 c -35.36853,0 -38.992187,3.623201 -38.992187,38.919923 v 98.158196 c 0,0.0882 0.0019,0.16224 0.002,0.25 V 80.585174 c -4.7e-5,-35.296721 3.625564,-38.92188 38.994094,-38.92188 h 73.005854 73.00586 c 35.28016,0 38.97394,3.621035 38.99219,38.67188 v -1.74805 c 0,-35.296722 -3.62561,-38.919923 -38.99414,-38.919923 h -73.00586 z"
     style="opacity:0.3;fill:#ffffff"
     id="path100" />
  <path
     d="m 15.825982,174.74532 v 2 c 0,35.29673 3.624067,39.09487 38.992187,38.92188 h 73.007811 73.00586 c 35.36811,0.17299 38.99414,-3.62515 38.99414,-38.92188 v -2 c 0,35.29673 -3.62603,39.09487 -38.99414,38.92188 H 127.82598 54.818169 c -35.36812,0.17299 -38.992187,-3.62515 -38.992187,-38.92188 z"
     style="opacity:0.2"
     id="path102" />
  <path
     style="opacity:0.75;fill:#cdcdcd;stroke-width:1.16470981;enable-background:new"
     d="M 36.457031 77.669922 L 36.457031 81.669922 L 220.94727 81.669922 L 220.94727 77.669922 L 36.457031 77.669922 z M 36.457031 89.669922 L 36.457031 93.669922 L 220.94727 93.669922 L 220.94727 89.669922 L 36.457031 89.669922 z M 36.457031 101.66992 L 36.457031 105.66992 L 118.89453 105.66992 L 118.89453 101.66992 L 36.457031 101.66992 z M 36.457031 113.66992 L 36.457031 117.66992 L 118.89453 117.66992 L 118.89453 113.66992 L 36.457031 113.66992 z M 36.457031 125.66992 L 36.457031 129.66992 L 118.89453 129.66992 L 118.89453 125.66992 L 36.457031 125.66992 z M 36.457031 137.66992 L 36.457031 141.66992 L 118.89453 141.66992 L 118.89453 137.66992 L 36.457031 137.66992 z M 36.457031 149.66992 L 36.457031 153.66992 L 118.89453 153.66992 L 118.89453 149.66992 L 36.457031 149.66992 z "
     id="path65" />
  <path
     sodipodi:nodetypes="ccccc"
     id="path923"
     d="m 36.456765,59.669159 v 4 H 220.94739 v -4 z"
     style="opacity:1;fill:#8b8b8b;fill-opacity:1;stroke-width:1.16470981;enable-background:new"
     inkscape:connector-curvature="0" />
  <path
     inkscape:connector-curvature="0"
     style="fill:#fdc92b;stroke-width:6.66665363;fill-opacity:1"
     class="ColorScheme-Text"
     d="m 184.37043,101.33825 c -3.74894,0 -6.8917,2.1356 -8.3372,5.13846 -2.85368,-1.9304 -6.83577,-2.3034 -10.06247,-0.52201 -3.23602,1.7532 -4.93331,5.11046 -4.61622,8.37452 -3.45985,-0.0266 -7.07822,1.32421 -8.92473,4.32712 -1.87447,3.0402 -1.49211,6.76114 0.58754,9.44699 -3.19873,1.34287 -5.45556,4.31779 -5.45556,7.82426 0,3.50645 2.25683,6.49072 5.45556,7.83365 -2.05167,2.68578 -2.462,6.37879 -0.58754,9.44691 1.84649,3.00294 5.46488,4.61625 8.92473,4.32712 -0.31708,3.2734 1.3802,6.63065 4.61622,8.37452 0.83933,0.45667 1.7346,0.70867 2.63919,0.87667 v 34.55179 l 15.78848,-15.78849 15.78845,15.78849 v -34.46786 c 0.91391,-0.11063 1.79985,-0.34533 2.63918,-0.96053 3.23603,-1.7532 4.93332,-5.11046 4.61624,-8.37452 3.45984,0.0266 7.07823,-1.32419 8.92473,-4.32713 1.87447,-3.04019 1.4921,-6.76112 -0.58754,-9.44691 3.19872,-1.34293 5.45555,-4.32719 5.45555,-7.83365 0,-3.50646 -2.25681,-6.48139 -5.45555,-7.82425 2.05167,-2.68592 2.462,-6.37891 0.58754,-9.44706 -1.84652,-3.00291 -5.46489,-4.61625 -8.92473,-4.32712 0.31706,-3.27332 -1.38021,-6.63066 -4.61624,-8.37452 -3.23603,-1.75326 -7.2088,-1.39885 -10.06247,0.52201 -1.44549,-3.00286 -4.58825,-5.13846 -8.33721,-5.13846 h -0.0654 z m 0,12.81357 c 12.69232,0 23.02523,9.68012 23.02523,21.61703 0,11.94624 -10.30493,21.59842 -23.02523,21.59842 -12.6923,0 -23.01589,-9.66145 -23.01589,-21.59842 0,-11.94624 10.2956,-21.61703 23.01589,-21.61703 z m 0,4.32713 c -10.15571,0 -18.39967,7.74039 -18.39967,17.2899 0,9.54951 8.24396,17.28057 18.39967,17.28057 10.15572,0 18.409,-7.73106 18.409,-17.28057 0,-9.54951 -8.25328,-17.2899 -18.409,-17.2899 z"
     id="path974" />
  <path
     id="path2512"
     d="m 184.37043,101.33825 c -3.74894,0 -6.8917,2.1356 -8.3372,5.13846 -2.85368,-1.9304 -6.83577,-2.3034 -10.06247,-0.52201 -3.23602,1.7532 -4.93331,5.11046 -4.61622,8.37452 -3.45985,-0.0266 -7.07822,1.32421 -8.92473,4.32712 -1.87447,3.0402 -1.49211,6.76114 0.58754,9.44699 -3.19873,1.34287 -5.45556,4.31779 -5.45556,7.82426 0,3.50645 2.25683,6.49072 5.45556,7.83365 -2.05167,2.68578 -2.462,6.37879 -0.58754,9.44691 1.84649,3.00294 5.46488,4.61625 8.92473,4.32712 -0.31708,3.2734 1.3802,6.63065 4.61622,8.37452 0.83933,0.45667 1.7346,0.70867 2.63919,0.87667 v 34.55179 l 15.78848,-15.78849 15.78845,15.78849 v -34.46786 c 0.91391,-0.11063 1.79985,-0.34533 2.63918,-0.96053 3.23603,-1.7532 4.93332,-5.11046 4.61624,-8.37452 3.45984,0.0266 7.07823,-1.32419 8.92473,-4.32713 1.87447,-3.04019 1.4921,-6.76112 -0.58754,-9.44691 3.19872,-1.34293 5.45555,-4.32719 5.45555,-7.83365 0,-3.50646 -2.25681,-6.48139 -5.45555,-7.82425 2.05167,-2.68592 2.462,-6.37891 0.58754,-9.44706 -1.84652,-3.00291 -5.46489,-4.61625 -8.92473,-4.32712 0.31706,-3.27332 -1.38021,-6.63066 -4.61624,-8.37452 -3.23603,-1.75326 -7.2088,-1.39885 -10.06247,0.52201 -1.44549,-3.00286 -4.58825,-5.13846 -8.33721,-5.13846 h -0.0654 z m 0,12.81357 c 12.69232,0 23.02523,9.68012 23.02523,21.61703 0,11.94624 -10.30493,21.59842 -23.02523,21.59842 -12.6923,0 -23.01589,-9.66145 -23.01589,-21.59842 0,-11.94624 10.2956,-21.61703 23.01589,-21.61703 z"
     class="ColorScheme-Text"
     style="fill:#5884f4;fill-opacity:1;stroke-width:6.66665363"
     inkscape:connector-curvature="0"
     sodipodi:nodetypes="ccccccscccccccccccccscccccsccsssss" />
</svg>

<svg enable-background="new" height="256" viewBox="0 0 256 256" width="256" xmlns="http://www.w3.org/2000/svg" xmlns:xlink="http://www.w3.org/1999/xlink">
  <linearGradient id="linearGradient4358" gradientTransform="matrix(0 -1 1 0 -10.0054 585.9946)" gradientUnits="userSpaceOnUse" x1="88" x2="488" y1="88" y2="488">
    <stop offset="0" stop-opacity=".588235"/>
    <stop offset=".88" stop-opacity="0"/>
    <stop offset="1"/>
  </linearGradient>
  <filter id="filter4380" color-interpolation-filters="sRGB" height="1.088" width="1.106" x="-.05" y="-.04">
    <feGaussianBlur stdDeviation="8.48"/>
  </filter>
  <filter id="filter4346" color-interpolation-filters="sRGB" height="1.022" width="1.026" x="-.01" y="-.01">
    <feGaussianBlur stdDeviation="2.12"/>
  </filter>
  <path d="m189.84323 74c-70.59344 0-78.18921 7.250835-77.84323 77.98706v146.01294 146.01294c-.34598 70.73623 7.24979 77.98706 77.84323 77.98706h196.31354c70.59344 0 76.00668-7.27384 77.84323-77.98706v-146.01294-146.01294c0-70.737067-7.24979-77.98706-77.84323-77.98706z" filter="url(#filter4346)" opacity=".1" transform="matrix(0 .5 -.5 0 276.82523 -15.328148)"/>
  <path d="m189.84323 74c-70.59344 0-78.18921 7.250835-77.84323 77.98706v146.01294 146.01294c-.34598 70.73623 7.24979 77.98706 77.84323 77.98706h196.31354c70.59344 0 77.84323-7.24999 77.84323-77.98706v-146.01294-146.01294c0-70.737067-7.24979-77.98706-77.84323-77.98706z" fill="url(#linearGradient4358)" filter="url(#filter4380)" opacity=".3" transform="matrix(0 .5 -.5 0 276.82523 -15.328148)"/>
  <path d="m241.83043 77.478254c0-36.098812-3.69016-39.983002-39.68984-39.80608h-74.31016-74.310155c-35.99969-.176922-39.68984 3.707268-39.68984 39.80608v100.387316c0 36.09881 3.68973 39.80608 39.68984 39.80608h74.310155 74.31016c36.00011 0 39.68984-3.70727 39.68984-39.80608z" opacity=".1"/>
  <path d="m239.82523 176.74483c0 35.29673-3.62542 39.09461-38.99353 38.92162h-73.00647-73.006465c-35.36812.17299-38.99353-3.62489-38.99353-38.92162v-98.156756c0-35.296717 3.625-38.921616 38.99353-38.921616h73.006465 73.00647c35.36853 0 38.99353 3.624899 38.99353 38.921616z" fill="#f6f5f4"/>
  <path d="m127.82793 127.66916v87.99804h73.00391c35.36811.17299 38.99414-3.62515 38.99414-38.92188v-49.07616z" fill="#fff" opacity=".1"/>
  <path d="m54.818169 39.667201c-35.36853 0-38.992187 3.623201-38.992187 38.919923v98.158196c0 .0882.0019.16224.002.25v-96.410146c-.000047-35.296721 3.625564-38.92188 38.994094-38.92188h73.005854 73.00586c35.28016 0 38.97394 3.621035 38.99219 38.67188v-1.74805c0-35.296722-3.62561-38.919923-38.99414-38.919923h-73.00586z" fill="#fff" opacity=".3"/>
  <path d="m15.825982 174.74532v2c0 35.29673 3.624067 39.09487 38.992187 38.92188h73.007811 73.00586c35.36811.17299 38.99414-3.62515 38.99414-38.92188v-2c0 35.29673-3.62603 39.09487-38.99414 38.92188h-73.00586-73.007811c-35.36812.17299-38.992187-3.62515-38.992187-38.92188z" opacity=".2"/>
  <path d="m36.457031 77.669922v4h184.490239v-4zm0 12v4h184.490239v-4zm0 11.999998v4h82.437499v-4zm0 12v4h82.437499v-4zm0 12v4h82.437499v-4zm0 12v4h82.437499v-4zm0 12v4h82.437499v-4z" fill="#cdcdcd" opacity=".75" stroke-width="1.16471"/>
  <path d="m36.456765 59.669159v4h184.490625v-4z" fill="#8b8b8b" stroke-width="1.16471"/>
  <g stroke-width="6.666654">
    <path d="m184.37043 101.33825c-3.74894 0-6.8917 2.1356-8.3372 5.13846-2.85368-1.9304-6.83577-2.3034-10.06247-.52201-3.23602 1.7532-4.93331 5.11046-4.61622 8.37452-3.45985-.0266-7.07822 1.32421-8.92473 4.32712-1.87447 3.0402-1.49211 6.76114.58754 9.44699-3.19873 1.34287-5.45556 4.31779-5.45556 7.82426 0 3.50645 2.25683 6.49072 5.45556 7.83365-2.05167 2.68578-2.462 6.37879-.58754 9.44691 1.84649 3.00294 5.46488 4.61625 8.92473 4.32712-.31708 3.2734 1.3802 6.63065 4.61622 8.37452.83933.45667 1.7346.70867 2.63919.87667v34.55179l15.78848-15.78849 15.78845 15.78849v-34.46786c.91391-.11063 1.79985-.34533 2.63918-.96053 3.23603-1.7532 4.93332-5.11046 4.61624-8.37452 3.45984.0266 7.07823-1.32419 8.92473-4.32713 1.87447-3.04019 1.4921-6.76112-.58754-9.44691 3.19872-1.34293 5.45555-4.32719 5.45555-7.83365s-2.25681-6.48139-5.45555-7.82425c2.05167-2.68592 2.462-6.37891.58754-9.44706-1.84652-3.00291-5.46489-4.61625-8.92473-4.32712.31706-3.27332-1.38021-6.63066-4.61624-8.37452-3.23603-1.75326-7.2088-1.39885-10.06247.52201-1.44549-3.00286-4.58825-5.13846-8.33721-5.13846h-.0654zm0 12.81357c12.69232 0 23.02523 9.68012 23.02523 21.61703 0 11.94624-10.30493 21.59842-23.02523 21.59842-12.6923 0-23.01589-9.66145-23.01589-21.59842 0-11.94624 10.2956-21.61703 23.01589-21.61703zm0 4.32713c-10.15571 0-18.39967 7.74039-18.39967 17.2899s8.24396 17.28057 18.39967 17.28057c10.15572 0 18.409-7.73106 18.409-17.28057s-8.25328-17.2899-18.409-17.2899z" fill="#fdc92b"/>
    <path d="m184.37043 101.33825c-3.74894 0-6.8917 2.1356-8.3372 5.13846-2.85368-1.9304-6.83577-2.3034-10.06247-.52201-3.23602 1.7532-4.93331 5.11046-4.61622 8.37452-3.45985-.0266-7.07822 1.32421-8.92473 4.32712-1.87447 3.0402-1.49211 6.76114.58754 9.44699-3.19873 1.34287-5.45556 4.31779-5.45556 7.82426 0 3.50645 2.25683 6.49072 5.45556 7.83365-2.05167 2.68578-2.462 6.37879-.58754 9.44691 1.84649 3.00294 5.46488 4.61625 8.92473 4.32712-.31708 3.2734 1.3802 6.63065 4.61622 8.37452.83933.45667 1.7346.70867 2.63919.87667v34.55179l15.78848-15.78849 15.78845 15.78849v-34.46786c.91391-.11063 1.79985-.34533 2.63918-.96053 3.23603-1.7532 4.93332-5.11046 4.61624-8.37452 3.45984.0266 7.07823-1.32419 8.92473-4.32713 1.87447-3.04019 1.4921-6.76112-.58754-9.44691 3.19872-1.34293 5.45555-4.32719 5.45555-7.83365s-2.25681-6.48139-5.45555-7.82425c2.05167-2.68592 2.462-6.37891.58754-9.44706-1.84652-3.00291-5.46489-4.61625-8.92473-4.32712.31706-3.27332-1.38021-6.63066-4.61624-8.37452-3.23603-1.75326-7.2088-1.39885-10.06247.52201-1.44549-3.00286-4.58825-5.13846-8.33721-5.13846h-.0654zm0 12.81357c12.69232 0 23.02523 9.68012 23.02523 21.61703 0 11.94624-10.30493 21.59842-23.02523 21.59842-12.6923 0-23.01589-9.66145-23.01589-21.59842 0-11.94624 10.2956-21.61703 23.01589-21.61703z" fill="#5884f4"/>
  </g>
</svg>
